out/images/Arrow 3.svg

<svg height="16" viewBox="0 0 29 16" width="29" xmlns="http://www.w3.org/2000/svg"><path d="m27.7093 8.99939c.3948-.38622.4017-1.01935.0155-1.41412l-6.2939-6.43321c-.3863-.394776-1.0194-.401703-1.4142-.01548-.3947.38623-.4017 1.01936-.0154 1.41413l5.5946 5.71841-5.7184 5.59458c-.3948.3863-.4017 1.0194-.0155 1.4142.3862.3947 1.0194.4017 1.4141.0154zm-26.720241.00055 26.010041.28459.0218-1.99988-26.00996-.28459z"/></svg>

<svg width="29" height="16" viewBox="0 0 29 16"  xmlns="http://www.w3.org/2000/svg">
<path d="M27.7093 8.99939C28.1041 8.61317 28.111 7.98004 27.7248 7.58527L21.4309 1.15206C21.0446 0.757284 20.4115 0.750357 20.0167 1.13658C19.622 1.52281 19.615 2.15594 20.0013 2.55071L25.5959 8.26912L19.8775 13.8637C19.4827 14.25 19.4758 14.8831 19.862 15.2779C20.2482 15.6726 20.8814 15.6796 21.2761 15.2933L27.7093 8.99939ZM0.989059 8.99994L26.9991 9.28453L27.0209 7.28465L1.01094 7.00006L0.989059 8.99994Z" />
</svg>
